assets/images/events.svg

<svg width="32" height="32" viewBox="0 0 32 32" fill="none" xmlns="http://www.w3.org/2000/svg">
<g clip-path="url(#clip0_165_928)">
<path d="M22.5987 22.2693C22.8293 21.0893 22.46 19.8773 21.6107 19.028L12.972 10.3893C12.1227 9.53867 10.9093 9.17067 9.732 9.40133C8.55333 9.63333 7.57066 10.4307 7.104 11.54L0.239997 27.8413C-0.23467 28.968 0.0173302 30.2547 0.88133 31.1187C1.456 31.6933 2.21733 31.9973 2.99333 31.9973C3.38533 31.9973 3.78133 31.9187 4.16 31.76L20.4627 24.8973C21.5707 24.4307 22.3693 23.448 22.6 22.2693H22.5987ZM3.124 29.3013C2.992 29.3587 2.87066 29.3347 2.76666 29.232C2.66266 29.1293 2.64 29.008 2.69733 28.8733L7.32666 17.8773L14.1213 24.6707L3.124 29.3013ZM19.9827 21.756C19.9533 21.9027 19.8427 22.264 19.4267 22.4387L16.7747 23.5547L8.444 15.2253L9.56133 12.572C9.736 12.1573 10.0973 12.0453 10.244 12.0173C10.288 12.008 10.352 12 10.428 12C10.6093 12 10.8627 12.0493 11.0867 12.2733L19.7253 20.912C20.044 21.2307 20.0107 21.608 19.9827 21.756ZM18.2987 0.502667C18.7587 -0.0693333 19.5867 -0.164 20.16 0.286667C20.2707 0.374667 22.8933 2.488 22.664 6.08533C22.5747 7.49467 22.0347 8.85733 21.0613 10.14C20.8 10.4853 20.4013 10.668 19.9987 10.668C19.7187 10.668 19.4347 10.58 19.1933 10.3973C18.6067 9.952 18.492 9.116 18.9373 8.52933C19.588 7.672 19.9453 6.79333 20.0013 5.91733C20.14 3.74267 18.564 2.43067 18.4973 2.376C17.9307 1.912 17.8387 1.07467 18.2973 0.505333L18.2987 0.502667ZM31.436 18.4227C31.2027 18.5867 30.9347 18.6667 30.6693 18.6667C30.2547 18.6667 29.848 18.4747 29.588 18.116C29.548 18.064 28.9747 17.3333 28.0013 17.3333C27.544 17.3333 27.1387 17.464 26.7973 17.7213C26.2093 18.1667 25.3733 18.048 24.9293 17.4613C24.4853 16.8747 24.6027 16.0373 25.1907 15.5947C25.9947 14.988 26.9667 14.668 28.0013 14.668C29.9107 14.668 31.26 15.8613 31.7573 16.5667C32.1813 17.168 32.0373 18 31.436 18.4253V18.4227ZM28.0013 2C28.0013 0.896 28.8973 0 30.0013 0C31.1053 0 32.0013 0.896 32.0013 2C32.0013 3.104 31.1053 4 30.0013 4C28.8973 4 28.0013 3.104 28.0013 2ZM25.3347 8.66667C25.3347 7.56267 26.2307 6.66667 27.3347 6.66667C28.4387 6.66667 29.3347 7.56267 29.3347 8.66667C29.3347 9.77067 28.4387 10.6667 27.3347 10.6667C26.2307 10.6667 25.3347 9.77067 25.3347 8.66667ZM10.6667 3.33333C10.6667 2.22933 11.5627 1.33333 12.6667 1.33333C13.7707 1.33333 14.6667 2.22933 14.6667 3.33333C14.6667 4.43733 13.7707 5.33333 12.6667 5.33333C11.5627 5.33333 10.6667 4.43733 10.6667 3.33333ZM30.6667 24.6667C30.6667 25.7707 29.7707 26.6667 28.6667 26.6667C27.5627 26.6667 26.6667 25.7707 26.6667 24.6667C26.6667 23.5627 27.5627 22.6667 28.6667 22.6667C29.7707 22.6667 30.6667 23.5627 30.6667 24.6667ZM1.33333 4.66667C1.33333 3.56267 2.22933 2.66667 3.33333 2.66667C4.43733 2.66667 5.33333 3.56267 5.33333 4.66667C5.33333 5.77067 4.43733 6.66667 3.33333 6.66667C2.22933 6.66667 1.33333 5.77067 1.33333 4.66667ZM24 30C24 31.104 23.104 32 22 32C20.896 32 20 31.104 20 30C20 28.896 20.896 28 22 28C23.104 28 24 28.896 24 30Z" fill="#5FD998"/>
</g>
<defs>
<clipPath id="clip0_165_928">
<rect width="32" height="32" fill="white"/>
</clipPath>
</defs>
</svg>

<?xml version="1.0" encoding="UTF-8"?>
<svg id="Layer_1" xmlns="http://www.w3.org/2000/svg" version="1.1" viewBox="0 0 32 32">
  <!-- Generator: Adobe Illustrator 29.5.1, SVG Export Plug-In . SVG Version: 2.1.0 Build 141)  -->
  <defs>
    <style>
      .st0 {
        fill: #5fd998;
      }
    </style>
  </defs>
  <path class="st0" d="M22.6,22.27c.23-1.18-.14-2.39-.99-3.24l-8.64-8.64c-.85-.85-2.06-1.22-3.24-.99-1.18.23-2.16,1.03-2.63,2.14L.24,27.84c-.47,1.13-.22,2.41.64,3.28.57.57,1.34.88,2.11.88.39,0,.79-.08,1.17-.24l16.3-6.86c1.11-.47,1.91-1.45,2.14-2.63h0ZM3.12,29.3c-.13.06-.25.03-.36-.07-.1-.1-.13-.22-.07-.36l4.63-11,6.79,6.79-11,4.63ZM19.98,21.76c-.03.15-.14.51-.56.68l-2.65,1.12-8.33-8.33,1.12-2.65c.17-.41.54-.53.68-.55.04,0,.11-.02.18-.02.18,0,.43.05.66.27l8.64,8.64c.32.32.29.7.26.84ZM18.3.5c.46-.57,1.29-.67,1.86-.22.11.09,2.73,2.2,2.5,5.8-.09,1.41-.63,2.77-1.6,4.05-.26.35-.66.53-1.06.53-.28,0-.56-.09-.81-.27-.59-.45-.7-1.28-.26-1.87.65-.86,1.01-1.74,1.06-2.61.14-2.17-1.44-3.49-1.5-3.54-.57-.46-.66-1.3-.2-1.87h0ZM31.44,18.42c-.23.16-.5.24-.77.24-.41,0-.82-.19-1.08-.55-.04-.05-.61-.78-1.59-.78-.46,0-.86.13-1.2.39-.59.45-1.42.33-1.87-.26-.44-.59-.33-1.42.26-1.87.8-.61,1.78-.93,2.81-.93,1.91,0,3.26,1.19,3.76,1.9.42.6.28,1.43-.32,1.86h0ZM28,2c0-1.1.9-2,2-2s2,.9,2,2-.9,2-2,2-2-.9-2-2ZM25.33,8.67c0-1.1.9-2,2-2s2,.9,2,2-.9,2-2,2-2-.9-2-2ZM10.67,3.33c0-1.1.9-2,2-2s2,.9,2,2-.9,2-2,2-2-.9-2-2ZM30.67,24.67c0,1.1-.9,2-2,2s-2-.9-2-2,.9-2,2-2,2,.9,2,2ZM1.33,4.67c0-1.1.9-2,2-2s2,.9,2,2-.9,2-2,2-2-.9-2-2ZM24,30c0,1.1-.9,2-2,2s-2-.9-2-2,.9-2,2-2,2,.9,2,2Z"/>
</svg>
